X:1
T:I Aint Gwine Study War No More
T:I Aint Gwine Study War No More
T:African-American Spiritual
T:Public Domain Courtesy of the Cyber Hymnal™
T:Public Domain Courtesy of the Cyber Hymnal™
Z:Public Domain
Z:Courtesy of the Cyber Hymnal™
%%score ( 1 2 ) ( 3 4 )
L:1/8
Q:1/4=75
M:2/4
K:G
V:1 treble 
V:2 treble 
V:3 bass 
V:4 bass 
V:1
"^Leader" B/B/ | B (D D)E | (GG) (BB) | [GB]2 [GB]>[GB] | [GB]/[FA]/ G3 | [FA]2 [FA]>[FB] | %6
w: 1.~Gwine to|lay down * my|bur- * den, *|Down by the|ri- ver- side,|Down by the|
w: 2.~Gwine to|lay down * my|sword~an’ * shiel’, *|Down by the|ri- ver- side,|Down by the|
w: 3.~Gwine to|try on * my|long~white * robe, *|Down by the|ri- ver- side,|Down by the|
w: 4.~Gwine to|try on * my|starry * crown, *|Down by the|ri- ver- side,|Down by the|
 [FA]/[DG]/ ([CE]2 [EG]) | [DG]2 [DG]>[DA] | [DG]/E/ !fermata!D2 |"^Leader" B/B/ | B (D D)E | %11
w: ri- ver- side, *|Down by the|ri- ver- side;|Gwine to|lay down * my|
w: ri- ver- side, *|Down by the|ri- ver- side;|Gwine to|lay down * my|
w: ri- ver- side, *|Down by the|ri- ver- side;|Gwine to|try on * my|
w: ri- ver- side, *|Down by the|ri- ver- side;|Gwine to|try on * my|
 (GG) (BB) | [GB]2 [GB]>[GB] | [GB]/[FA]/ G2 [GA] | [FB] [FA]3 | [FB]2 [FA]2 | G4 || %17
w: bur- * den, *|Down by the|ri- ver- side, To|stu- dy|war no|more.|
w: sword~an’ * shiel’ *|Down by the|ri- ver- side, To|stu- dy|war no|more.|
w: long~white * robe, *|Down by the|ri- ver- side, To|stu- dy|war no|more.|
w: starry * crown, *|Down by the|ri- ver- side, To|stu- dy|war no|more.|
"^Refrain" z G [=FA][FB] | [Ec]<[Gc] [Gc][Gc] | [Gc]2 GA | [GB]<[GB] [GB][GB] | [GB]2 [DG][GB] | %22
w: |||||
w: I aint gwine|stu- dy war no|more, Aint gwine|stu- dy war no|more, Aint gwine|
w: |||||
w: |||||
 [FB] [FA]3 | G2 [FA]2 | [GB]6 [GA][GB] | [Gc]<[Gc] [Gc][Gc] | [Gc]2 GA | [GB]<[GB] [AB][AB] | %28
w: ||||||
w: stu- dy|war no|more; Aint gwine|stu- dy war no|more, Aint gwine|stu- dy war no|
w: ||||||
w: ||||||
 !fermata![^GB]2 [E=G][GB] | [FA] [FA]3 | [FB]2 [FA]2 | G4- | [DG]4 |] %33
w: |||||
w: more, Aint gwine|stu- dy|war no|more!||
w: |||||
w: |||||
V:2
 x | x4 | x4 | x4 | x G3 | x4 | x4 | x4 | x/ E/ D2 | x | x4 | x4 | x4 | x G2 x | x4 | x4 | G4 || %17
 x G x2 | x4 | x2 GA | x4 | x4 | x4 | G2 x2 | x8 | x4 | x2 GA | x4 | x4 | x4 | x4 | G D2 E | x4 |] %33
V:3
 z | z4 | z4 | [G,D]2 [G,D]>[G,D] | [G,D]/[G,C]/ [G,B,]3 | [G,C]2 [G,C]>[G,D] | %6
 [G,C]/[G,B,]/ (G,2 C) | [G,,B,]2 [G,,B,]>[G,,B,] | [G,,B,]/[G,,C]/ !fermata![G,,B,]2 | z | z4 | %11
 z4 | [G,D]2 [G,D]>[G,D] | [G,D]/[G,C]/ [G,B,]2 [G,C] | [D,C] [D,C]3 | [D,D]2 [D,C]2 | [G,B,]4 || %17
 z [G,,B,] [G,,C][G,,D] | [C,C]<[C,E] [C,E][C,E] | E2 [E,E][F,_E] | [G,D]<[A,D] [B,D][A,D] | %21
 D2 [C,B,][G,,D] | [D,C] [D,C]3 | [E,B,]2 [D,D]2 | D4 [G,,=F]2 [G,,F][G,,F] | %25
 [C,E]<[C,E] [C,E][C,E] | E2 [E,E][F,_E] | [G,D]<[G,D] [F,^D][F,D] | (E=D) [A,,^C][A,,C] | %29
 [D,=C] [D,C]3 | [D,D]2 [D,C]2 | B,3 C | [G,,B,]4 |] %33
V:4
 x | x4 | x4 | x4 | x4 | x4 | x C,3 | x4 | x3 | x | x4 | x4 | x4 | x4 | x4 | x4 | x4 || x4 | x4 | %19
 (C,D,) x2 | x4 | (G,D,) x2 | x4 | x4 | G,<G,D,B,, x4 | x4 | (C,D,) x2 | x4 | E,2 x2 | x4 | x4 | %31
 G,,4- | x4 |] %33

